icons/svg/toolbox.svg

<svg width="24" height="24" viewBox="0 0 24 24" fill="none" xmlns="http://www.w3.org/2000/svg">
<path d="M2.75 9.99999C2.75 8.34313 4.09315 6.99998 5.75 6.99998H18.25C19.9069 6.99998 21.25 8.34313 21.25 9.99998V13.2149V17.5C21.25 19.1568 19.9069 20.5 18.25 20.5H5.75C4.09315 20.5 2.75 19.1568 2.75 17.5V13.2149V9.99999Z" stroke="currentColor" stroke-width="1.5" stroke-linecap="round" stroke-linejoin="round"/>
<path d="M8 5.5C8 4.39543 8.89543 3.5 10 3.5H14C15.1046 3.5 16 4.39543 16 5.5V7H8V5.5Z" stroke="currentColor" stroke-width="1.5" stroke-linecap="round" stroke-linejoin="round"/>
<path d="M8.5 11L8.5 14" stroke="currentColor" stroke-width="1.5" stroke-linecap="round" stroke-linejoin="round"/>
<path d="M15.5 11L15.5 14" stroke="currentColor" stroke-width="1.5" stroke-linecap="round" stroke-linejoin="round"/>
<path d="M2.75 12.5L21.25 12.5" stroke="currentColor" stroke-width="1.5" stroke-linecap="round" stroke-linejoin="round"/>
</svg>

<svg xmlns="http://www.w3.org/2000/svg" width="24" height="24" fill="none" viewBox="0 0 24 24"><path stroke="currentColor" stroke-linecap="round" stroke-linejoin="round" stroke-width="1.5" d="M2.75 10a3 3 0 0 1 3-3h12.5a3 3 0 0 1 3 3v7.5a3 3 0 0 1-3 3H5.75a3 3 0 0 1-3-3zM8 5.5a2 2 0 0 1 2-2h4a2 2 0 0 1 2 2V7H8zm.5 5.5v3m7-3v3M2.75 12.5h18.5"/></svg>
